**kern
*staff1
*head1[head1]
*solo1[solo1]
*solo1[solo2]
*solo1[solo3]
*solo1[solo4]
=1-
*clefG2
*k[]
*B-:
*M4/4
1r
=2
1r
=3
1r
=4
2r
4r
8r
*>head1
{[8B-/
=5
4B-/]
8A/L
8F#/J
8G/L
8B-/
8c/
8d/J
=6
4e-/
8r
[8G-/
8G-/L]
[8d-/
8d-/]
8B-/J
=7
12c/L
12d-/
12c/J
8B-/L
8G/J
4B-/
12F/L
12A-/
12e-/J
=8
8g/L
8f/J
4g/
8r
[8f/L
8f/]
8e-/J
=9
4f/
8r
[8B-/
8B-/L]
[8c/
8c/]
[8B-/J
=10
8B-/L]
[8f/
8f/]
8e-/J
8B-/L
8G-/
8d/
[8A/J
=11
4A/]
8r
8f/
4c/
8r
8f/
=12
12d/L
12e-/
12f/J
16d/LL
16B-/J
8e-/J
4r
8r
[8d/
=13
8d/L]
[8B-/
8B-/]
8G/J
8B-/L
8G/J
4B-/
=14
8r
[8B-/L
8B-/]
8G/J
4B-/
8r
[8d/
=15
4d/]
8B-/L
8F/J
24A-/LL
24B-/
24A-/JJ
8F/L
8G/
[8F/J
=16
4F/]
8r
8F/
24A-/LL
24B-/
24A-/JJ
8F/L
8An/
8B-/J}
=17
8r
*>solo1
{8c/L
8B-/
8G/J
8c/
4B-/
8f/
=18:|!
8e-/
4B-/
[8d/
4d/]
24B-/LL
24c/
24B-/JJ
8G/
=19
8c/L
8F/
8G/
[8A-/J
4A-/]}
4r
=20
2r
{8g\L
8b-\
8cc\
[8dd-\J
=21
8dd-\]
24cc\LL
24b-\
24a-\JJ
8f/L
[8e-/J
4e-/]}
4r
=22
2r
8r
{24B-/LL
24B-/
24B-/JJ
8r
[8e/
=23
8e/L]
[8e-/
8e-/]
[8d-/J
24d-/LL]
24e-/
24d-/JJ
8B-/L
8dn/
8F/J}
=24
4r
8r
{8c#/
16d/LL
16f/
16g/
16a/JJ
16cc\LL
16b-\
16bn\
16a-\JJ
=25
8r
16b-\LL
32cc\L
32b-\JJJ
16a/LL
16g/
16f/
16e/JJ
8e-/
8r
16r
16F#/LL
16G/
16B-/JJ
=26
16d/LL
16c/
16B-/
16G/JJ
4A/
16r
16g-/LL
16e-/
16en/JJ
16f/LL
16A/
16B-/
16e-/JJ
=27
16c/LL
16c#/
16d/
16B-/JJ
4cn/}
2r
=28
4r
8r
*>solo2
{8d/
4d/
8f/L
8b-/J
=29
24a-/LL
24b-/
24a-/JJ
8f/L
8g/
8f/J
8r
[8dd-\
12dd-\L]
12b-\
12a-\J
=30||
8f/L
8e-/
8B-/
8G/J
8c#/L
8d/
8B-/
8G/J
=31
4d/
8f/L
8e-/J
8d/L
8F/
8G/
[8A-/J
=32
4A-/]}
4r
4r
{16g/LL
16g-/
16f/
16e/JJ
=33
16e-/LL
16A/
16B-/
16c/JJ
4d-/}
2r
=34
4r
{24cc\LL
24dd-\
24cc\JJ
16b-/LL
16a-/JJ
16f/LL
16a-/
16b-/
16dd-/JJ
16cc/LL
16b-/
16an/
16g/JJ
=35
16f#/LL
16g/
16b-/
16g/JJ
16e-/LL
16c/
16fn/
16e-/JJ
16d/LL
16B-/
16G/
16A/JJ
16c/LL
16B-/
16A/
16B-/JJ
=36
16d/LL
16f/
16g/
16a/JJ
16cc\LL
16b-\
16bn\
16a-\JJ
16e/LL
16c#/
16b-/
16an/JJ
16g/LL
16g-/
16f/
16e/JJ
=37
4e-/
16r
16F#/LL
16G/
16B-/JJ
8d/L
8c/
8B-/
8G/J
=38
8A/L
[8f/J
4f/]
8c/L
8f/J
[4d-/
=39
4d-/]
8f/L
[8dn/J
8d/L]
8f/J
4e-/}
=40
2r
8r
*>solo3
{[8d/L
8d/]
16f/L
16a/JJ
=41
8b-/L
8f/J
4r
8cc\L
8f\
8cc#\}
8dd\J
=42||
4r
8r
{8b-\
8cc\L
8dd\
8ee-\
8ff\J
=43
6dd\
6b-\
[6b-\
8b-/L]
[8f/
8f/]
[8b-/J
=44
8b-\L]
8dd\J
4a-/}
2r
=45
4r
16r
{16cc\LL
16b-\
16a-\JJ
8g/L
8f/
8e-/
8G/J
=46
4B-/
8r
[8c/
4c/]
24B-/LL
24c/
24B-/JJ
8G/
=47
4.d/
8f/}
2r
=48
8r
{16a/LL
16g/JJ
16f/LL
16e-/
16d/
16c/JJ
16B/LL
16d/
16f/
16g/JJ
24a-/LL
24b-/
24a-/JJ
16g/LL
16f/JJ
=49
4.e-/}
8r
8r
{8F#/
12G/L
12B-/
12c/J
=50
8d/L
8c/
8B-/
8G/J
8A/L
8f#/
8e-/
8en/J
=51
8f/L
8e-/J
12d/L
12f/
12a/J
16cc\LL
16b-\J
[8cc\J
4cc\]}
=52
2r
8r
*>solo4
{4b-\
[8b-\
=53
8b-\]
4b-\
[8b-\
8b-/L]
8b-/
8a-/
8f/J
=54||
4r
6b-\
6b-\
6b-\
8dd-\
24cc\LL
24b-\
24a-\JJ
=55
16f/LL
16e-/
16d-/
16B-/JJ
2dn/}
4r
=56
8r
{8G/
16A-/LL
16c/
16e-/
16g/JJ
8b-/L
8g-/
8d/
8B-/J
=57
4.f/}
8r
8e-/L
{8g/
8b-/
[8dd-/J
=58
8dd-\]
4dd-\
8b-\
2cc\
=59
2r
8r
24d/LL
24f/
24a/JJ
8cc\L
8b-\J
=60
24a/LL
24b-/
24a/JJ
8f/L
8d/
8A/J
8A-/L
8e/
8c#/
8d/J
=61
8e-/L
8G/J
4r
8d/L
8c/
8B-/
8G/J
=62
8A/L
8g-/
8e-/
8en/J
8f/L
8e-/J
12d/L
12f/
12a/J
=63
8b-/L
[8f/J
4f/]
4r
16a/LL
16g/
16f#/
16g/JJ
=64
16b-/LL
16g/
16e-/
16c/JJ
4c#/
8r
24a/LL
24g/
24g-/JJ
4f/}
==
*-
